X: 123102
T: OLD BOG HOLE
P: Same figure.
%R: reel
B: James Kerr "Merry Melodies" v.1 p.23 s.1 #2
Z: 2017 John Chambers <jc:trillian.mit.edu>
M: C
L: 1/8
K: A
vcB |\
A2AA A2CD | (FE)EE E2AB |\
c2cc (dc)BA | (cB)BA (Bd)cB |\
A2AA A2CD | (FE)EE E2ed |\
ceee ecAB | (cA)AA A2 :|
ue2 |\
(ce)ee (ef)ed | cBcd efec |\
(df)ff (fg)fe | dcde fgfe |\
ceag fedc | dcBA B2(ce) |\
ecaf ecAB | (cA)AA A2 |]

%%sep 1 1 500
%%sep 1 1 500

